X: 30422
T: SCOTCH DELIGHT
C:
%R: reel
B: Elias Howe "The Musician's Companion" Part 3 1844 p.42 #2
S: http://imslp.org/wiki/The_Musician's_Companion_(Howe,_Elias)
S: https://archive.org/stream/firstthirdpartof03howe/#page/66/mode/1up
Z: 2016 John Chambers <jc:trillian.mit.edu>
M: 2/4
L: 1/16
K: A
% - - - - - - - - - - - - - - - - - - - - - - - - -
|:\
eaAa fedc | dcde fee2 |\
eaAa fedc | dfed cAA2 ::\
EAce dcBA | dcde fee2 |
EAce dcBA | dfed cAA2 |\
EAce dcBA | dcde fee2 |\
eaAa fedc | dfed cAA2 :|
% - - - - - - - - - - - - - - - - - - - - - - - - -
